X:1
T:[ID 2-44b]
C:Urheber unbekannt
C:Datum in der hier transkribierten schriftlichen Quelle: 1767
L:1/4
M:3/4
I:linebreak $
K:D
V:1 bass 
V:1
 D, D,, D, | D, A,, D,, | D, A, A,, | D, A,, D,, | D, A, A,, | D, C, B,, | A,,/D,/ E, E,, | %7
 A, E, A,, :: F, F,, F, | E, E,, E, | D, B, G, | A, E, A,, |$ D, D,, A,, | D, E, F, | G, A, A,, | %15
 D, E, F, | G, A, A,, | D, F, D, | D,/G,/ A, A,, | D, A,, D,, :| %20
